vi-base/public/vi/viur-shoelace/assets/icons/table.svg

<svg xmlns="http://www.w3.org/2000/svg" viewBox="9 12 42 36"><path d="M9.87 12.64v34.72h40.26V12.64Zm12.64 16.47v6.58H12.4v-6.58ZM12.4 26.59V20h10.11v6.59Zm10.11 11.63v6.58H12.4v-6.58Zm12.92 0v6.58H25v-6.58ZM25 35.69v-6.58h10.4v6.58Zm10.4-9.1H25V20h10.4ZM47.6 44.8H38v-6.58h9.6Zm0-9.11H38v-6.58h9.6Zm0-9.1H38V20h9.6Z" fill="currentcolor"/></svg>

<svg xmlns="http://www.w3.org/2000/svg" viewBox="9 12 42 36"><path d="M9.87,12.64V47.36H50.13V12.64ZM22.51,29.11v6.58H12.4V29.11ZM12.4,26.59V20H22.51v6.59ZM22.51,38.22V44.8H12.4V38.22Zm12.92,0V44.8H25V38.22ZM25,35.69V29.11h10.4v6.58Zm10.4-9.1H25V20h10.4ZM47.6,44.8H38V38.22H47.6Zm0-9.11H38V29.11H47.6Zm0-9.1H38V20H47.6Z" fill="currentcolor"/></svg>
